X: 4
T: The Hag's Purse
R: jig
M: 6/8
L: 1/8
K: Dmix
|:A2D FED|A2B cAF|G2E EDE|c2d cAG|A2D FED|A2B cAF|GEE cEE|DED D2:||:A|d2e fed|e2d cAF|G2E EDE|c2d cAG|d2e fed|e2d cAF|GEE cEE|DED D2:|


Tune 926	Setting 27833

